X:178
T:Sebastopol
M:C|
L:1/8
Q:1/4=150
K:G
B|\
B2B2 B3A|G2B2 d3B |B3B c3B|B2A2-A2zA|
A2A2 A3G|F2A2 c3c |B3B d3B|A2G2 D3G |
B3B  B3A|GDGB edDG|B3B B3c|B2B2 A2A2|G4 z2z||
